Papirus/24x24/panel/firewall-applet-panic.svg

<?xml version="1.0" encoding="UTF-8" standalone="no"?>
<svg xmlns:dc="http://purl.org/dc/elements/1.1/" xmlns:cc="http://creativecommons.org/ns#" xmlns:rdf="http://www.w3.org/1999/02/22-rdf-syntax-ns#" xmlns:svg="http://www.w3.org/2000/svg" xmlns="http://www.w3.org/2000/svg" id="svg2817" height="24" width="24" version="1.0">
    <metadata id="metadata57">
        <rdf:RDF>
            <cc:Work rdf:about="">
                <dc:format>
                    image/svg+xml
                </dc:format>
                <dc:type rdf:resource="http://purl.org/dc/dcmitype/StillImage"/>
                <dc:title/>
            </cc:Work>
        </rdf:RDF>
    </metadata>
    <g style="opacity:1;fill:#5294e2;fill-opacity:1" id="g4486" transform="matrix(0.04620599,0,0,0.04537505,3.8523814,3.9988892)">
        <path style="fill:#5294e2;fill-opacity:1" d="M 10.923828,3.0117188 4.1542969,4.9980469 C 4.0619311,5.0300363 4,5.4721642 4,5.5683594 4,7.9404762 4.6393254,10.684789 5.7539062,13.09375 6.6579728,15.048008 8.283939,17.654196 10.894531,18.974609 10.927753,18.991398 10.963682,19 11,19 c 0.03632,0 0.07225,-0.0086 0.105469,-0.02539 2.610453,-1.320687 4.236374,-3.926828 5.140625,-5.880859 C 17.360628,10.684607 18,7.9401132 18,5.5683594 18,5.4721642 17.938069,5.0300363 17.845703,4.9980469 L 11.076172,3.0117188 c -0.04972,-0.017243 -0.102626,-0.017243 -0.152344,0 z m 0.03125,2.9960937 c 0.02841,-0.0097 0.05948,-0.0097 0.08789,0 l 3.86914,1.3183594 C 14.96489,7.3441659 15,7.3912027 15,7.4453125 c 0,1.3341118 -0.365076,2.8772785 -1.001953,4.2324215 -0.516715,1.099143 -1.445813,2.565708 -2.9375,3.308594 C 11.041563,14.995772 11.020753,15 11,15 10.97925,15 10.95844,14.9958 10.93945,14.98633 9.4476863,14.243595 8.5185624,12.777005 8.0019531,11.677734 7.3650498,10.322693 7,8.7796285 7,7.4453125 7,7.3912027 7.0351102,7.3441659 7.0878906,7.3261719 L 10.955078,6.0078125 Z M 10,7 l 0,4 2,0 0,-4 -2,0 z m 0,5 0,2 2,0 0,-2 -2,0 z" transform="matrix(21.642216,0,0,22.038543,-61.731858,-66.091145)" id="path4448"/>
    </g>
</svg>

<?xml version="1.0" encoding="UTF-8" standalone="no"?>
<svg id="svg2817" xmlns:rdf="http://www.w3.org/1999/02/22-rdf-syntax-ns#" xmlns="http://www.w3.org/2000/svg" height="24" width="24" version="1.0" xmlns:cc="http://creativecommons.org/ns#" xmlns:dc="http://purl.org/dc/elements/1.1/">
 <metadata id="metadata57">
  <rdf:RDF>
   <cc:Work rdf:about="">
    <dc:format>image/svg+xml</dc:format>
    <dc:type rdf:resource="http://purl.org/dc/dcmitype/StillImage"/>
    <dc:title/>
   </cc:Work>
  </rdf:RDF>
 </metadata>
 <g id="g4486" transform="matrix(.046206 0 0 .045375 3.8524 3.9989)" fill="#5294e2">
  <path id="path4448" d="m10.924 3.0117-6.7697 1.9863c-0.0924 0.032-0.1543 0.4742-0.1543 0.5704 0 2.3721 0.6393 5.1166 1.7539 7.5256 0.9041 1.954 2.53 4.56 5.1411 5.881 0.033 0.016 0.069 0.025 0.105 0.025 0.03632 0 0.07225-0.0086 0.10547-0.02539 2.6105-1.3207 4.2364-3.9268 5.1406-5.8809 1.115-2.409 1.754-5.1539 1.754-7.5256 0-0.0962-0.062-0.5384-0.154-0.5704l-6.77-1.9863c-0.04972-0.017243-0.10263-0.017243-0.15234 0zm0.03125 2.9961c0.02841-0.0097 0.05948-0.0097 0.08789 0l3.8691 1.3184c0.053 0.018 0.088 0.065 0.088 0.1191 0 1.3341-0.36508 2.8773-1.002 4.2324-0.51672 1.0991-1.4458 2.5657-2.9375 3.3086-0.018 0.01-0.039 0.014-0.06 0.014s-0.042-0.004-0.061-0.014c-1.4913-0.742-2.4204-2.209-2.937-3.308-0.637-1.355-1.002-2.8984-1.002-4.2327 0-0.0541 0.0351-0.1011 0.0879-0.1191l3.8671-1.3184zm-0.955 0.9922v4h2v-4h-2zm0 5v2h2v-2h-2z" transform="matrix(21.642 0 0 22.039 -61.732 -66.091)" fill="#5294e2"/>
 </g>
</svg>
